X: 13
T:Buffalo Gals
M:2/4
L:1/8
K:G
P:A
D|"G"GA Bc|"G"ed B3/2B/2|"D7"dc Ac|"C"ed "D7"B>A|"G"GA Bc|
"G"ed B3/2g/2|"C"fe "D7"cA|"G"G3:: "D7"d/e/|"C"gf ef|"G"ed d3/2e/2|"D7"dc Ac|
"G"ed de/2f/2|"C"gf ef|"G"ed d3/2e/2|"D7"dc AF|"G"G3:|
